dist/flags/l/258.svg

<svg width="32" height="24" viewBox="0 0 32 24" fill="none" xmlns="http://www.w3.org/2000/svg">
<mask id="mask0" mask-type="alpha" maskUnits="userSpaceOnUse" x="0" y="0" width="32" height="24">
<rect width="32" height="24" fill="white"/>
</mask>
<g mask="url(#mask0)">
<path fill-rule="evenodd" clip-rule="evenodd" d="M0 0V24H32V0H0Z" fill="#F7FCFF"/>
<mask id="mask1" mask-type="alpha" maskUnits="userSpaceOnUse" x="0" y="0" width="32" height="24">
<path fill-rule="evenodd" clip-rule="evenodd" d="M0 0V24H32V0H0Z" fill="white"/>
</mask>
<g mask="url(#mask1)">
<path fill-rule="evenodd" clip-rule="evenodd" d="M0 0V6H32V0H0Z" fill="#BF2714"/>
<path fill-rule="evenodd" clip-rule="evenodd" d="M0 18V24H32V18H0Z" fill="#BF2714"/>
<mask id="mask2" mask-type="alpha" maskUnits="userSpaceOnUse" x="10" y="6" width="12" height="12">
<path fill-rule="evenodd" clip-rule="evenodd" d="M16 18C19.3137 18 22 15.3137 22 12C22 8.68629 19.3137 6 16 6C12.6863 6 10 8.68629 10 12C10 15.3137 12.6863 18 16 18Z" fill="white"/>
</mask>
<g mask="url(#mask2)">
<path fill-rule="evenodd" clip-rule="evenodd" d="M10.5487 13.7648C10.494 13.5933 10.6792 13.4444 10.8349 13.5348L11.2086 13.7516C11.2643 13.784 11.3324 13.787 11.3907 13.7597L12.3132 13.3277C12.3778 13.2975 12.4538 13.3046 12.5117 13.3464L13.5082 14.0656L14.8857 13.3239C14.9388 13.2954 15.002 13.2927 15.0573 13.3167L16.0947 13.7674C16.1472 13.7902 16.2069 13.789 16.2585 13.7642L17.1891 13.3162C17.2388 13.2923 17.2962 13.2903 17.3474 13.3108L18.4989 13.7707C18.5508 13.7914 18.609 13.7891 18.6591 13.7644L19.551 13.3231C19.6074 13.2952 19.6738 13.296 19.7295 13.3251L20.5476 13.7536C20.6068 13.7845 20.6777 13.7834 20.7358 13.7504L21.1613 13.5094C21.3129 13.4235 21.4931 13.5627 21.4484 13.7311L21.3595 14.0656H10.6448L10.5487 13.7648Z" fill="#5277B9"/>
<path fill-rule="evenodd" clip-rule="evenodd" d="M10.545 14.9506C10.4918 14.7781 10.6797 14.6311 10.8344 14.7241L11.1744 14.9286C11.2314 14.9629 11.3018 14.9661 11.3616 14.937L12.2389 14.5113C12.3051 14.4792 12.3837 14.4867 12.4426 14.5308L13.3986 15.2459L14.7222 14.5072C14.7766 14.4769 14.8421 14.4741 14.8989 14.4996L15.8886 14.9453C15.9425 14.9695 16.0044 14.9683 16.0572 14.9419L16.9449 14.499C16.9958 14.4736 17.0553 14.4715 17.1079 14.4933L18.2081 14.9488C18.2614 14.9709 18.3218 14.9684 18.3731 14.9421L19.2228 14.5063C19.2806 14.4767 19.3494 14.4775 19.4064 14.5085L20.1841 14.9306C20.2447 14.9635 20.3181 14.9622 20.3775 14.9273L20.7676 14.6983C20.9185 14.6097 21.1012 14.7473 21.0578 14.9168L20.9734 15.2459H10.6359L10.545 14.9506Z" fill="#5277B9"/>
<path fill-rule="evenodd" clip-rule="evenodd" d="M10.7418 15.7375C10.6886 15.565 10.8765 15.418 11.0312 15.511L11.3711 15.7155C11.4281 15.7498 11.4986 15.7529 11.5584 15.7239L12.4357 15.2982C12.5019 15.266 12.5805 15.2735 12.6394 15.3176L13.5953 16.0327L14.919 15.2941C14.9734 15.2637 15.0389 15.2609 15.0956 15.2865L16.0854 15.7321C16.1392 15.7564 16.2011 15.7551 16.254 15.7288L17.1416 15.2859C17.1926 15.2605 17.2521 15.2584 17.3047 15.2801L18.4049 15.7356C18.4582 15.7577 18.5185 15.7553 18.5699 15.7289L19.4196 15.2932C19.4774 15.2636 19.5461 15.2644 19.6032 15.2954L20.3808 15.7174C20.4414 15.7503 20.5148 15.7491 20.5743 15.7142L20.9644 15.4851C21.1152 15.3966 21.298 15.5342 21.2545 15.7036L21.1702 16.0327H10.8327L10.7418 15.7375Z" fill="#5277B9"/>
<path fill-rule="evenodd" clip-rule="evenodd" d="M11.9219 16.5245C11.8688 16.352 12.0566 16.2049 12.2113 16.298L12.5513 16.5025C12.6083 16.5368 12.6788 16.5399 12.7386 16.5109L13.6158 16.0851C13.682 16.053 13.7606 16.0605 13.8196 16.1046L14.7755 16.8197L16.0992 16.0811C16.1535 16.0507 16.219 16.0479 16.2758 16.0735L17.2656 16.5191C17.3194 16.5434 17.3813 16.5421 17.4342 16.5158L18.3218 16.0729C18.3728 16.0474 18.4323 16.0453 18.4849 16.0671L19.5851 16.5226C19.6384 16.5447 19.6987 16.5422 19.7501 16.5159L20.5998 16.0802C20.6576 16.0506 20.7263 16.0514 20.7834 16.0824L21.561 16.5044C21.6216 16.5373 21.695 16.5361 21.7545 16.5012L22.1446 16.2721C22.2954 16.1836 22.4782 16.3212 22.4347 16.4906L22.3503 16.8197H12.0129L11.9219 16.5245Z" fill="#5277B9"/>
<path fill-rule="evenodd" clip-rule="evenodd" d="M10.3482 17.508C10.2951 17.3355 10.4829 17.1885 10.6376 17.2815L10.9776 17.486C11.0346 17.5203 11.105 17.5234 11.1649 17.4944L12.0421 17.0687C12.1083 17.0365 12.1869 17.044 12.2458 17.0881L13.2018 17.8032L14.5254 17.0646C14.5798 17.0342 14.6453 17.0314 14.7021 17.057L15.6918 17.5026C15.7457 17.5269 15.8076 17.5257 15.8604 17.4993L16.7481 17.0564C16.7991 17.031 16.8585 17.0289 16.9112 17.0507L18.0113 17.5061C18.0647 17.5282 18.125 17.5258 18.1764 17.4994L19.0261 17.0637C19.0839 17.0341 19.1526 17.0349 19.2097 17.0659L19.9873 17.4879C20.0479 17.5208 20.1213 17.5196 20.1807 17.4847L20.5708 17.2556C20.7217 17.1671 20.9044 17.3047 20.861 17.4741L20.7766 17.8032H10.4392L10.3482 17.508Z" fill="#5277B9"/>
<path d="M14.4225 14.138V15.138C13.5782 15.138 12.9809 14.6196 12.6904 13.6989L12.6672 13.5485V9.44592H13.6672V13.4681C13.8338 13.9485 14.0682 14.138 14.4225 14.138Z" fill="#FF0000"/>
<path d="M17.1917 14.138V15.138C18.036 15.138 18.6334 14.6196 18.9239 13.6989L18.947 13.5485V9.44592H17.947V13.4681C17.7804 13.9485 17.546 14.138 17.1917 14.138Z" fill="#FF0000"/>
<path fill-rule="evenodd" clip-rule="evenodd" d="M16.7248 6.90869C16.7248 6.90869 15.0659 6.47492 15.0659 7.57486C15.0659 8.67481 15.0659 11.037 15.0659 11.037L16.9999 11.6114V8.78154C16.9999 8.78154 16.0329 8.19069 16.0329 7.72862C16.0329 7.26655 16.7248 6.90869 16.7248 6.90869Z" fill="#FF0000"/>
<path d="M13.9338 12.8907L14.5645 12.0847" stroke="black"/>
<path d="M14.5089 12.8641L13.9045 12.0533" stroke="black"/>
<path d="M14.8386 12.8907L15.4693 12.0847" stroke="black"/>
<path d="M15.4136 12.8641L14.8093 12.0533" stroke="black"/>
<path d="M15.7043 12.8907L16.335 12.0847" stroke="black"/>
<path d="M16.2794 12.8641L15.675 12.0533" stroke="black"/>
<path d="M16.6091 12.8907L17.2398 12.0847" stroke="black"/>
<path d="M17.1841 12.8641L16.5798 12.0533" stroke="black"/>
<path d="M17.5142 12.8907L18.1449 12.0847" stroke="black"/>
<path d="M18.0892 12.8641L17.4849 12.0533" stroke="black"/>
<path fill-rule="evenodd" clip-rule="evenodd" d="M13.4543 7.09487L14.6512 9.43314L14.7985 7.09487L14.6512 6.63428L13.4543 7.09487ZM12.8547 9.09027L11.9924 8.17598L12.8547 7.14843L14.6672 10.0458V10.7822L13.7957 10.0458V9.09027H12.8547ZM10.9563 9.79467L12.5292 10.5476L12.6521 9.38433L11.3426 8.26542L10.9563 9.79467ZM12.6085 11.7257L10.5396 11.514V10.0549L12.6085 10.8507V11.7257ZM10.4836 13.1589L10.238 11.9182L12.57 12.0345V13.1589H10.4836ZM13.7671 11.1203V10.4201L14.6392 11.1203L14.5446 11.4901L13.7671 11.1203ZM21.8805 11.9182L21.6349 13.1589H19.5485V12.0345L21.8805 11.9182ZM19.51 11.7257L21.5789 11.514V10.0549L19.51 10.8507V11.7257ZM21.1622 9.79467L19.5893 10.5476L19.4665 9.38433L20.776 8.26542L21.1622 9.79467ZM19.2638 9.09027L20.1261 8.17598L19.2638 7.14843L17.4514 10.0458V10.7822L18.3229 10.0458V9.09027H19.2638ZM18.6642 7.09487L17.4674 9.43314L17.32 7.09487L17.4674 6.63428L18.6642 7.09487ZM18.3514 11.1203V10.4201L17.4793 11.1203L17.574 11.4901L18.3514 11.1203Z" fill="#FA8F21"/>
</g>
</g>
</g>
</svg>

<svg width="32" height="24" fill="none" xmlns="http://www.w3.org/2000/svg">
  <mask id="a" maskUnits="userSpaceOnUse" x="0" y="0" width="32" height="24">
    <path fill="#fff" d="M0 0h32v24H0z"/>
  </mask>
  <g mask="url(#a)">
    <path fill-rule="evenodd" clip-rule="evenodd" d="M0 0v24h32V0H0z" fill="#F7FCFF"/>
    <mask id="b" maskUnits="userSpaceOnUse" x="0" y="0" width="32" height="24">
      <path fill-rule="evenodd" clip-rule="evenodd" d="M0 0v24h32V0H0z" fill="#fff"/>
    </mask>
    <g mask="url(#b)">
      <path fill-rule="evenodd" clip-rule="evenodd" d="M0 0v6h32V0H0zm0 18v6h32v-6H0z" fill="#BF2714"/>
      <mask id="c" maskUnits="userSpaceOnUse" x="10" y="6" width="12" height="12">
        <path fill-rule="evenodd" clip-rule="evenodd" d="M16 18a6 6 0 100-12 6 6 0 000 12z" fill="#fff"/>
      </mask>
      <g mask="url(#c)">
        <path fill-rule="evenodd" clip-rule="evenodd" d="M10.549 13.765a.197.197 0 01.286-.23l.374.217a.197.197 0 00.182.008l.922-.432a.197.197 0 01.199.018l.996.72 1.378-.742a.197.197 0 01.171-.007l1.038.45a.197.197 0 00.164-.003l.93-.448a.197.197 0 01.158-.005l1.152.46c.052.02.11.018.16-.007l.892-.44a.197.197 0 01.179.001l.818.429c.059.03.13.03.188-.004l.425-.24a.197.197 0 01.287.221l-.088.335H10.645l-.096-.301zm-.004 1.185a.197.197 0 01.29-.226l.34.205a.197.197 0 00.187.008l.877-.426a.197.197 0 01.204.02l.956.715 1.323-.739a.197.197 0 01.177-.007l.99.445a.197.197 0 00.168-.003l.888-.443a.197.197 0 01.163-.006l1.1.456c.053.022.114.02.165-.007l.85-.436a.197.197 0 01.183.002l.778.423c.06.033.134.031.194-.004l.39-.229c.15-.088.333.05.29.219l-.085.329H10.636l-.091-.295zm.197.788a.197.197 0 01.289-.227l.34.205a.197.197 0 00.187.008l.877-.426a.197.197 0 01.204.02l.956.715 1.324-.739a.197.197 0 01.176-.008l.99.446a.197.197 0 00.169-.003l.887-.443a.197.197 0 01.164-.006l1.1.456c.053.022.113.02.165-.007l.85-.436a.197.197 0 01.183.002l.778.422c.06.033.134.032.193-.003l.39-.229a.197.197 0 01.29.219l-.084.329H10.833l-.091-.296zm1.18.786a.197.197 0 01.29-.226l.34.204a.197.197 0 00.187.009l.877-.426a.197.197 0 01.204.02l.955.715 1.324-.739a.197.197 0 01.177-.008l.99.446a.197.197 0 00.168-.003l.888-.443a.197.197 0 01.163-.006l1.1.456c.053.022.114.02.165-.007l.85-.436a.197.197 0 01.183.002l.778.422c.06.033.134.032.194-.003l.39-.229a.197.197 0 01.29.219l-.085.329H12.013l-.091-.296zm-1.574.984a.197.197 0 01.29-.226l.34.204a.197.197 0 00.187.008l.877-.425a.197.197 0 01.204.02l.956.714 1.323-.738a.197.197 0 01.177-.008l.99.446a.197.197 0 00.168-.004l.888-.443a.197.197 0 01.163-.005l1.1.455c.054.022.114.02.165-.006l.85-.436a.197.197 0 01.184.002l.777.422c.06.033.134.032.194-.003l.39-.23a.197.197 0 01.29.22l-.084.328H10.439l-.09-.295z" fill="#5277B9"/>
        <path d="M14.422 14.138v1c-.844 0-1.441-.518-1.732-1.44l-.023-.15V9.446h1v4.022c.167.48.401.67.755.67zm2.77 0v1c.844 0 1.442-.518 1.732-1.44l.023-.15V9.446h-1v4.022c-.166.48-.4.67-.755.67z" fill="red"/>
        <path fill-rule="evenodd" clip-rule="evenodd" d="M16.725 6.909s-1.66-.434-1.66.666v3.462L17 11.61V8.78s-.967-.59-.967-1.052c0-.463.692-.82.692-.82z" fill="red"/>
        <path d="M13.934 12.89l.63-.805m-.055.779l-.604-.81m.934.836l.63-.805m-.055.779l-.605-.81m.895.836l.63-.805m-.054.779l-.605-.81m.934.836l.63-.805m-.055.779l-.604-.81m.934.836l.63-.805m-.054.779l-.605-.81" stroke="#000"/>
        <path fill-rule="evenodd" clip-rule="evenodd" d="M13.454 7.095l1.197 2.338.148-2.338-.148-.46-1.197.46zm-.6 1.995l-.861-.914.862-1.028 1.812 2.898v.736l-.871-.736V9.09h-.941zm-1.897.705l1.572.753.123-1.164-1.31-1.119-.386 1.53zm1.652 1.93l-2.07-.211v-1.46l2.07.797v.875zm-2.125 1.434l-.246-1.24 2.332.115v1.125h-2.086zm3.283-2.039v-.7l.872.7-.094.37-.778-.37zm8.114.798l-.246 1.24H19.55v-1.124l2.332-.116zm-2.37-.192l2.068-.212v-1.46l-2.069.797v.875zm1.651-1.931l-1.572.753-.123-1.164 1.31-1.119.385 1.53zm-1.898-.705l.862-.914-.862-1.028-1.813 2.898v.736l.872-.736V9.09h.94zm-.6-1.995l-1.197 2.338-.147-2.338.148-.46 1.196.46zm-.312 4.025v-.7l-.873.7.095.37.778-.37z" fill="#FA8F21"/>
      </g>
    </g>
  </g>
</svg>
